X:155
T:The Caribou
M:4/4
L:1/8
R:reel
N:Learned from Kira Ott
Z:Michael Abraham Shulman
K:Em
|:Be2B efed|Bdef edBA|Ad2A d^cde|fafd edBA|
Be2B efed|Bdef g2fg|afge fded|1 BAGF E4:|2 BAGF E2EF|
|:GEED EFGA|BEED EGFE|DDkFD DkADD|kBDDkA DDkFD|
E2ED EFGA|Bcef g2fg|afge fded|1 BAGF E2EF:|2 BAGF E4||
